X:292
T:Light and Airy. RH.292
R:jig
S:Rev.R.Harrison’s MS,c1815,Cumbria
N:This aka The Bucks of Westmeath. PJH.
O:England
A:Temple Sowerby,Cumbria
Z:vmp.Simon Wilson. Review PJH, 2008.
M:6/8
L:1/8
Q:3/8=120
K:G
d3 BdB|GBd gdB|d3 BdB|A2B c2e|!
d3 BdB|GBd gdB|cac BgB|A2B c2e:|!
|:gag gdB|gag gc’a|gag gdB|A2B c2e|!
gbg ac’a|gfe dcB|cac BgB|A2B c2e:|!
|:dBG G2B|dBG Bdg|dBG G2B|A2B c2e|!
dBG GBd|g>fe d>cB|cac BgB|A2B c2e:|

